X: 12
T: Silver Spire, The
Z: Erik-Fiddler
S: https://thesession.org/tunes/240#setting49034
R: reel
M: 4/4
L: 1/8
K: Dmaj
|:DF F/F/F DFAc|dcde fdAF|G/G/G BG F/F/F AF|GFED CEA,C|
DF F/F/F DFAc|dcde fdAF|G/G/G BG F/F/F AF|1 EDCE DEFE:|2 EDCE D2||
|:CB,|A,B,CD EFGF|GE E/E/E GABc|dB B/B/B Bcde|f/f/f gf e2 A/B/c|
defd ceAc|dcdB AFDF|G/G/G BG F/F/F AF|1 EDCE D2:|2 EDCE DEFE||

